!!!!SEGMENT: pl-wtm--r-1042_kurpinski-karol-kazimierz--pas-de-trois.krn
!!!cenid: 18xx:2168
!!!COM: Kurpiński, Karol Kazimierz
!!!COM-rism: pe30018952
!!!CDT: 1785/03/06-1857/09/18
!!!CNT: Polish
!!!OTL: Pas de trois
!!!PDT:
!!!AGN: Secular
!!!SMS-siglum: PL-Wtm
!!!SMS-shelfmark: R 1042
!!!NIFC-rismID: 1001086593
!!!URL-scan: http://repozytorium.nifc.pl/skany/pl-wtm-nut--r1042
!!!ONB-nifc:
!!!OMD: Adagio
!!!SMS-variant:
!!!SMS-altvar:
**kern	**dynam
*I"Skrzypce	*
*I'vl	*
*clefG2	*
*k[f#]	*
*M4/4	*
*met(c)	*
*>[A,B,B,C,D,D,E]	*
*all\right	*
*>A	*
16gg\ 16b\	.
=1	=1
4gg\ 4b\	.
8.r	.
16aa\ 16ee\	.
4aa\ 4ee\	.
8.r	.
16bb\ 16dd#X\	.
=2	=2
*2\right	*
2bb\ 2dd#X\	.
4r	.
8.r	.
16aa\ 16cc\	.
=3	=3
4aa\ 4cc\	.
32eee\LLL	.
32ddd\	.
32ccc\	.
32bb\	.
32aa\	.
32gg\	.
32ff#\	.
32ee\JJJ	.
4cc\	.
*Xtuplet	*
(8aa\L	.
56gg\LL	.
56ff#\	.
56ee\	.
56dd\	.
56cc\	.
56b\	.
56a\JJJ)	.
!!LO:LB:g=original
=4	=4
12g/L	.
12d/ 12B/	.
12d/J 12B/	.
12d/L 12B/	.
12d/ 12B/	.
12d/J 12B/	.
8bb\L	.
16r	.
(16aa#X\Jk	.
8bb\L)	.
16r	.
(16aa#\Jk	.
=5	=5
(4bb\)	.
*tuplet	*
12bb\L	<
12ccc\	.
12ccc#X\J)	.
*Xtuplet	*
24.ddd\LL	[
48eee\K	.
24.ddd\	.
48eee\K	.
24.ddd\	.
48eee\JJk	.
24.ddd\LL	.
48eee\K	.
24.ddd\	.
48eee\K	.
24.ddd\	.
48eee\JJk	.
!!LO:LB:g=original
=6	=6
*tuplet	*
12ccc'\L	.
12aa'\	.
12ff#'\J	.
8dd\	.
8r	.
8aa\L	.
16r	.
(16gg#X\Jk	.
8aa\L)	.
16r	.
(16gg#\Jk	.
=7	=7
(4aa\)	.
12aa\L	<
12bb-X\	.
12bbn\J)	.
*Xtuplet	*
24.ccc\LL	[
48ddd\K	.
24.ccc\	.
48ddd\K	.
24.ccc\	.
48ddd\JJk	.
*rep	*
24.ccc\LL	.
48ddd\K	.
24.ccc\	.
48ddd\K	.
24.ccc\	.
48ddd\JJk	.
*Xrep	*
!!LO:LB:g=original
=8	=8
12bb\L	.
12gg\	.
12ee\J	.
8cc\	.
8r	.
8gg\L	.
16r	.
16ff#\Jk	.
8gg\L	.
16r	.
16ff#\Jk	.
=9	=9
(4gg\	.
*tuplet	*
12gg\L	.
12ff#\	.
12ee\J)	.
24ggg'\LL	.
24fff#'\	.
24eee'\	.
24ddd'\	.
24ccc#X'\	.
24bb'\JJ	.
24aa'\LL	.
24gg'\	.
24ff#'\	.
24ee'\	.
24dd'\	.
24cc#X'\JJ	.
=10!|:	=10!|:
*>B	*
*Xtuplet	*
12dd/L 12d'/	f
12a'/	.
12f#'/J	.
12dd/L 12d'/	.
12a'/	.
12f#'/J	.
12dd/L 12d/	.
12b/	.
12g/J	.
12gg/L 12b/ 12d/	.
12b/	.
12g/J	.
!!LO:LB:g=original
=11:|!	=11:|!
*>C	*
*^	*
4dd/ 4d/	4..ryy	.
8.r	.	.
16d/	16d\	.
4d/	4d\	.
8.r	8.ryy	.
16d/	16d\	.
=12	=12	=12
4.d;/	4.d\	.
*v	*v	*
=13||	=13||
*k[f#]	*
*M2/4	*
!LO:TX:a:B:t=andantino	!LO:DY:rj
16.ddW\LL	p
32cc#X\L	.
32dd\JJJ	.
=14	=14
8bb'\L	.
8aa'\	.
8gg'\	.
8ff#'\J	.
=15	=15
8.ee\L	.
64aa\LLL	.
64gg#X\	.
64aa\	.
64bb\JJJJ	.
8ccc\	.
(24ee\LL	.
24dd\)	.
24cc'\JJ	.
!!LO:LB:g=original
=16	=16
(24cc/LL	.
24b/)	.
24a'/JJ	.
*rep	*
(24cc/LL	.
24b/)	.
24a'/JJ	.
*Xrep	*
*rep	*
(24cc/LL	.
24b/)	.
24a'/JJ	.
*Xrep	*
*rep	*
(24cc/LL	.
24b/)	.
24a'/JJ	.
*Xrep	*
=17	=17
(24b\LL	.
24cc\)	.
24cc'\JJ	.
(24cc\LL	.
24cc#X\)	.
24cc#'\JJ	.
(24cc#\LL	.
24dd\)	.
24dd'\JJ	.
16ddT\LL	.
32cc#\L	.
32dd\JJJ	.
=18	=18
8bb'\L	.
8aa'\	.
8gg'\	.
8ff#'\J	.
=19	=19
([8ee\L	.
64ee\LLL]	.
64ff#\	.
64gg#X\	.
64aa\	.
64bb\	.
64ccc\J	.
32ddd\JJJ)	.
8eee\	.
(24ccc\LL	.
24bb\)	.
24aa'\JJ	.
!!LO:LB:g=original
=20	=20
24gg\LL	.
24ddd'\	.
24ccc#X'\JJ	.
24cccn'\LL	.
24bb'\	.
24bb-X'\JJ	.
24aa'\LL	.
24gg#X'\	.
24ggn'\JJ	.
24ff#'\LL	.
24ee#X'\	.
24ff#'\JJ	.
=	=
8gg\L	.
8gg\J 8b\ 8d^\	.
8r	.
=21||	=21||
16ggT\LL	.
32ff#\L	.
32gg\JJJ	.
=22	=22
(8gg#X\L	.
16aa\Jk)	.
16r	.
(8gg#\L	.
16aa\Jk)	.
16r	.
=23	=23
[8eee\L	.
(32eee\LL]	.
32ddd\	.
32aa#X\	.
32bb\JJJ)	.
16.gg\LL	.
32gg\JJk	.
16.ggT\L	.
64ff#\LL	.
64gg\JJJ	.
!!LO:LB:g=original
=24	=24
(16gg#X\LL	.
32aa\JJk)	.
32r	.
(16bb\LL	.
32aa\JJk)	.
32r	.
(16gg#X\LL	.
32aa\JJk)	.
32r	.
(16eee\LL	.
32ddd\JJk)	.
32r	.
=25	=25
8eee\L	.
32eee\LL	.
32ddd\	.
32aa#X\	.
32bb\JJJ	.
8gg\	.
16.ddT\L	.
64cc#X\LL	.
64dd\JJJ	.
=26	=26
8bb'\L	.
8aa'\	.
8gg'\	.
8ff#'\J	.
=27	=27
[8ffn\L	f
56ff\LL]	.
(56gg\	.
56aa\	.
56bb\	.
56ccc\	.
56ddd\	.
56eee\JJJ)	.
8fffn\	.
(24eee\LL	.
24ddd\)	.
24ccc'\JJ	.
!!LO:LB:g=original
=28	=28
24bb\LL	.
24ddd'\	.
24ccc#X'\JJ	.
24cccn'\LL	.
24bb'\	.
24bb-X'\JJ	.
24aa'\LL	.
24gg#X'\	.
24ggn'\JJ	.
!LO:TX:a:t=la	!
16ff#\LL	.
32ee\L	.
32ff#\JJJ	.
=	=
8gg\L	.
8gg\J 8b\ 8d^\	.
8r	.
=29||	=29||
!LO:TX:a:t=var&colon;/.	!
8ddW\	.
=30	=30
(16bb'\LL	p
16bb'\	.
16aa'\	.
16aa'\JJ	.
16gg'\LL	.
16gg'\	.
16ff#'\	.
16ff#'\JJ)	.
=31	=31
(16ee'\LL	.
16dd#X'\	.
16ee'\	.
16dd#'\JJ	.
16ee'\LL	.
16dd#'\	.
16ddn'\	.
16cc#X'\JJ)	.
!!LO:LB:g=original
=32	=32
16ccn'\LL	.
16aa'\	.
16cc'\	.
16aa'\JJ	.
16cc'\LL	.
16aa\ 16cc'\	.
16gg\ 16b'\	.
16ff#\JJ 16a'\	.
=33	=33
24gg\LL 24b\	.
24b'\	.
24cc'\JJ	.
24dd'\LL	.
24ee-X'\	.
24een'\JJ	.
24ffn'\LL	.
24ff#X'\	.
24gg'\JJ	.
24gg#X'\LL	.
24aa'\	.
24aa#X'\JJ	.
=34	=34
16bb'\LL	.
16bb'\	.
16aa'\	.
16aa'\JJ	.
16gg'\LL	.
16gg'\	.
16ffn'\	.
16ff'\JJ	.
=35	=35
16ee'\LL	.
16ddd#X'\	.
16eee'\	.
16ddd#'\JJ	.
16eee'\LL	.
16ccc'\	.
16bb'\	.
16aa'\JJ	.
!!LO:LB:g=original
=36	=36
16gg\LL	.
16ff#\	.
16ee'\	.
16ee-X'\JJ	.
16dd'\LL	.
16cc#X'\	.
16ccn'\	.
16a'\JJ	.
=	=
16g/LL	.
16f#/ 16c/	.
16g/ 16B/	.
16f#/JJ 16c/	.
16g/ 16B/	.
=37||	=37||
16dd'\LL	.
16cc#X'\	.
16dd'\JJ	.
=38	=38
16gg#X'\LL	.
16aa'\	.
16bb'\	.
16aa'\JJ	.
16gg#'\LL	.
16aa'\	.
16eee'\	.
16ddd'\JJ	.
=39	=39
16ccc#X'\LL	.
16ddd'\	.
16aa#X'\	.
16bb'\JJ	.
16gg\	.
16dd'\LL	.
16cc#X'\	.
16dd'\JJ	.
=40	=40
16gg#X'\LL	.
16aa'\	.
16bb'\	.
16aa'\JJ	.
16gg#'\LL	.
16aa'\	.
16eee'\	.
16ddd'\JJ	.
!!LO:LB:g=original
=41	=41
16eee'\LL	.
16ddd'\	.
16aa#X'\	.
16bb'\JJ	.
16gg\	.
16dd'\LL	.
16cc#X'\	.
16dd'\JJ	.
=42	=42
16bb\LL	.
16bb\	.
16aa\	.
16aa\JJ	.
16gg\LL	.
16gg\	.
16ff#\	.
16ff#\JJ	.
=43	=43
32ffn\LLL	.
64gg\L	.
64aa\	.
64bb\	.
64ccc#X\	.
64ddd\	.
64eee\JJJJ	.
8fff#\	.
8r;	.
(24eee\LL	.
24ddd\)	.
24cccn'\JJ	.
=44	=44
24bb'\LL	.
24ddd'\	.
24ccc#X'\JJ	.
24cccn'\LL	.
24bb'\	.
24bb-X'\JJ	.
!LO:TX:t=P:problem:ostatnie dźwięki prawie niewidoczne	!
24aa'\LL	.
24gg#X'\	.
24ggn'\JJ	.
16ff#W\LL	.
32ee\L	.
32ff#\JJJ	.
!!LO:PB:g=original
=45	=45
*M2/4	*
!LO:TX:a:t=V&colon;2	!
32dd\LLL	f
32dd\JJJ	.
16dd\LL	.
16dd\JJ	.
=46	=46
16bb\LL 16dd\	.
32g\L	.
32g\JJJ	.
16g\LL	.
16g\JJ	.
16gg\LL 16b\	.
32g\L	.
32g\JJJ	.
16g\LL	.
16g\JJ	.
=47	=47
16ee/ 16cc/ 16g/	.
32c/LLL	.
32c/JJJ	.
16c/	.
16c/	.
16ccc/LL 16ee/ 16g/	.
32c/L	.
32c/JJJ	.
16c/LL	.
16c/JJ	.
=48	=48
16ff#/LL 16a/ 16d/	.
32d/L	.
32d/JJJ	.
16d/LL	.
16d/JJ	.
!LO:TX:t=P:problem:mixed beam	!
16ddd\LL 16ff#\	.
32d/L	.
32d/JJJ	.
16d/LL	.
16d/JJ	.
!!LO:LB:g=original
=49	=49
16bb\ 16dd\ 16g\	.
32b\LLL	.
32b\JJJ	.
32cc\LLL	.
32cc\	.
32dd\	.
32dd\JJJ	.
32ee\LLL	.
32ee\	.
32ff#\	.
32ff#\JJJ	.
32gg\LLL	.
32gg\	.
32aa\	.
32aa\JJJ	.
=50	=50
16bb\LL 16dd\	.
32g\L	.
32g\JJJ	.
16g\LL	.
16g\JJ	.
16gg\LL 16b\	.
32g\L	.
32g\JJJ	.
16g\LL	.
16g\JJ	.
=51	=51
16ee/LL 16b/ 16g#X/	.
32e/L	.
32e/JJJ	.
16e/LL	.
16e/JJ	.
16aa\LL 16cc\	.
16a\	.
16ccc\ 16ee\	.
16a\JJ	.
=52	=52
16bb\LL 16dd\ 16g\	.
32dd\L	.
32dd\JJJ	.
16dd\LL	.
16dd\JJ	.
16aa\LL 16dd\ 16d\	.
32dd\L	.
32dd\JJJ	.
16dd\LL	.
16dd\JJ	.
!!LO:LB:g=original
=	=
16gg/LL 16b/	.
32g/L 32B/	.
32g/JJJ 32B/	.
16g/LL 16B/	.
16g/JJ 16B/	.
16g/ 16B/	.
=53||	=53||
32dd\LLL	.
32dd\JJJ	.
16dd\LL	.
16dd\JJ	.
=54!|:	=54!|:
*>D	*
16aa\LL 16dd\ 16d\	.
32dd\L	.
32dd\JJJ	.
16dd\LL	.
16dd\JJ	.
16ddd\LL 16dd\ 16d\	.
32dd\L	.
32dd\JJJ	.
16dd\LL	.
16dd\JJ	.
=55	=55
16bb\LL 16dd\ 16g\	.
32dd\L	.
32dd\JJJ	.
16dd\LL	.
16dd\JJ	.
16bb\LL 16dd\ 16g\	.
32dd\L	.
32dd\JJJ	.
16dd\LL	.
16dd\JJ	.
!!LO:LB:g=original
=56:|!	=56:|!
*>E	*
16gg\LL 16b\	.
32g\L	.
32g\JJJ	.
16g\LL	.
16g\JJ	.
16bb\LL 16dd\	.
32g\L	.
32g\JJJ	.
16g\LL	.
16g\JJ	.
=57	=57
32fffn\LLL 32ffn\	f
32fff\ 32ff\	.
32fff\ 32ff\	.
32fff\ 32ff\	.
32fff\ 32ff\	.
32fff\ 32ff\	.
32fff\ 32ff\	.
32fff\JJJ 32ff\	.
*tremolo	*
32eee\LLL 32ee\	.
32eee\ 32ee\	.
32eee\ 32ee\	.
32eee\JJJ 32ee\	.
32eee\LLL 32ee\	.
32eee\ 32ee\	.
32eee\ 32ee\	.
32eee\JJJ 32ee\	.
*Xtremolo	*
!!LO:LB:g=original
=58	=58
16bb\LL 16dd\ 16g\	.
32dd\L	.
32dd\JJJ	.
16dd\LL	.
16dd\JJ	.
16aa\LL 16dd\ 16d\	.
32dd\L	.
32dd\JJJ	.
16dd\LL	.
16dd\JJ	.
=59	=59
16gg\LL 16b\	.
32g\L	.
32g\JJJ	.
32g\LLL	.
32g\JJJ	.
8g\	.
8r;	.
16gg\ 16cc#X\	.
!!LO:LB:g=original
=60	=60
4.gg\ 4.cc#X;\	.
16r	.
16ccc#X\ 16cc#X\	.
=61	=61
4.ccc#X\ 4.cc#X;\	.
16r	.
16cccn\ 16dd\	.
=62	=62
4.ccc\ 4.dd;\	.
==	==
*-	*-
!!!EED: Leszek Kubiak
!!!EST: 2021-05-28
!!!ENC: Tomasz Grochalski
!!!END: 2021-05-16
